actions/24/view-financial-account-savings-closed.svg

<svg xmlns="http://www.w3.org/2000/svg" version="1.1" viewBox="0 0 24 24" width="24" height="24">
  <style type="text/css" id="current-color-scheme">.ColorScheme-Text { color:#eff0f1; }.ColorScheme-NegativeText { color: #da4453; }</style>
  <g transform="translate(1,1)">
    <path d="m11 2c-1.0071809 0-1.9159199 0.3855812-2.6191406 1h-3.2597656l1 1h1.4335937c-0.1828841 0.3142485-0.3239661 0.6549888-0.4199219 1.0136719l0.8769532 0.8769531c0.0588156-1.605044 1.3688663-2.890625 2.9882812-2.890625 1.656854 0 3 1.3431458 3 3 0 1.6194149-1.285581 2.9294656-2.890625 2.9882812l1.011719 1.0117188h3.878906v-1h-2.380859c0.839215-0.7332403 1.380859-1.7980419 1.380859-3 0-0.7323174-0.211097-1.4096103-0.554688-2h3.554688v11.878906l1 1v-13.878906h-5.380859c-0.703221-0.6144188-1.61196-1-2.619141-1zm-8 3.1210938v13.878906h13.878906l-3-3h-9.878906v-9.8789062l-1-1zm3 3.8789062v1h1.8789062l-1-1h-0.8789062z" fill="currentColor" class="ColorScheme-Text"/>
    <path d="M 3.7070312,3 3,3.7070312 18.292969,19 19,18.292969 Z" fill="currentColor" class="ColorScheme-NegativeText"/>
  </g>
</svg>

<svg xmlns="http://www.w3.org/2000/svg" version="1.1" viewBox="0 0 24 24" width="24" height="24">
  <style type="text/css" id="current-color-scheme">.ColorScheme-Text { color: #fcfcfc; }.ColorScheme-NegativeText { color: #da4453; }</style>
  <g transform="translate(1,1)">
    <path d="M 11,2 C 9.9928191,2 9.0840801,2.3855812 8.3808594,3 H 5.1210938 l 1,1 H 7.5546875 C 7.3718034,4.3142485 7.2307214,4.6549888 7.1347656,5.0136719 L 8.0117188,5.890625 C 8.0705344,4.285581 9.3805851,3 11,3 c 1.656854,0 3,1.3431458 3,3 0,1.6194149 -1.285581,2.9294656 -2.890625,2.9882812 L 12.121094,10 H 16 V 9 H 13.619141 C 14.458356,8.2667597 15,7.2019581 15,6 15,5.2676826 14.788903,4.5903897 14.445312,4 H 16 c 0,0 2,0 2,2 0,2 0,9.878906 0,9.878906 l 1,1 C 19,16.878906 19,9 19,6 19,3 16,3 16,3 H 13.619141 C 12.91592,2.3855812 12.007181,2 11,2 Z M 3,5.1210938 C 3,5.1210938 3,13 3,16 c 0,3 3,3 3,3 h 10.878906 l -3,-3 H 6 C 6,16 4,16 4,14 4,12 4,6.1210936 4,6.1210936 Z M 6,9 v 1 h 1.8789062 l -1,-1 z" fill="currentColor" class="ColorScheme-Text"/>
    <path d="M 3.7070312,3 3,3.7070312 18.292969,19 19,18.292969 Z" fill="currentColor" class="ColorScheme-NegativeText"/>
  </g>
</svg>
